X: 3
T: Swaggering Jig, The
M: 9/8
L: 1/8
R: slip jig
K: Gmaj
|: d/c/ |\
BAG AGE EDD | BAG AGE c2 d | BAG AGE ED>D | cBA BGE D2 :|
z |\
GBd efe dcB | GBd efe d2 B | GBd efe dcB | AGE GAB c2 A |
GBd efe dcB | GBd efe d2 f | gfe edB BAG | AGE GAB c2 |]
